assets/images/payments/contactless_payment(white).svg

<svg fill="none" height="128" viewBox="0 0 128 128" width="128" xmlns="http://www.w3.org/2000/svg" xmlns:xlink="http://www.w3.org/1999/xlink"><clipPath id="a"><path d="m0 0h128v128h-128z"/></clipPath><g clip-path="url(#a)" fill="#fffefe"><path d="m54.76 104.79c-30.2 0-54.76-18.3-54.76-40.79s24.56-40.79 54.76-40.79c23.72 0 44.63 11.25 52 28 .215.4853.228 1.0362.037 1.5312-.095.2452-.237.4693-.418.6595-.182.1903-.399.3429-.639.4493s-.499.1644-.762.1707-.524-.0392-.769-.1339c-.495-.1913-.894-.5715-1.109-1.0568-6.74-15.33-26.18-25.62-48.34-25.62-27.99 0-50.76 16.5-50.76 36.79s22.77 36.79 50.76 36.79c16.16 0 31-5.41 40.7-14.84.3806-.37.8926-.5736 1.4233-.5661s1.0367.2255 1.4067.6061.5736.8926.5661 1.4233-.2255 1.0367-.6061 1.4067c-10.45 10.18-26.25 15.97-43.49 15.97z"/><path d="m126 86.16c-.34.0007-.674-.0853-.972-.2497-.297-.1645-.548-.4021-.728-.6903-6.72-10.78-17.92-28.45-19.37-29.94l-.45-.45c-1.71-1.72-3.33-3.35-5.07-3.35-2.66 0-10.38.68-10.46.69-.2626.023-.5272-.006-.7787-.0853-.2514-.0792-.4848-.2073-.6868-.3767-.2019-.1695-.3686-.3771-.4903-.611-.1217-.2338-.1962-.4894-.2192-.752s.006-.5272.0853-.7787c.0792-.2514.2073-.4848.3767-.6868.1695-.2019.3771-.3685.611-.4903.2338-.1217.4894-.1962.752-.2192.32 0 8-.7 10.81-.7 3.41 0 5.8 2.41 7.91 4.54l.44.44c2.14 2.13 17 25.91 19.94 30.65.189.303.294.6513.303 1.0085.01.3572-.077.7104-.251 1.0228-.173.3124-.427.5725-.735.7535-.309.1809-.66.2759-1.017.2752z"/><path d="m109.81 94.25h-.16c-2.338-.2453-4.601-.9668-6.65-2.12-2.78-1.6946-5.0821-4.0692-6.69-6.9-.7651-1.3416-1.3885-2.7593-1.86-4.23-.61-1.68-1.31-3.59-2.15-4.34s-4-3.28-7.38-6l-5.13-4.15c-5.07-4.11-7.58-6.21-8.39-7-3-3-3-6.75 0-9.77 1.26-1.26 4.09-3 8.86-.33l21.27 11.79-1.94 3.5-21.27-11.86c-2.85-1.58-3.78-.64-4.09-.33-1.82 1.82-1 3.15 0 4.11s6.33 5.32 8.08 6.74l5.12 4.14c3.73 3 6.67 5.39 7.53 6.15 1.6 1.42 2.44 3.73 3.25 6 .3867 1.2056.889 2.3711 1.5 3.48 1.266 2.2672 3.086 4.1766 5.29 5.55 1.545.8533 3.245 1.3904 5 1.58.53.0199 1.031.2497 1.392.6388.361.3892.553.9058.533 1.4362s-.25 1.0312-.639 1.3922c-.389.3611-.906.5527-1.436.5328z"/><path d="m90.45 80.62c-1.3502.1075-2.7001-.2107-3.86-.91-.35-.28-1.49-1.08-2.7-1.92-2.4115-1.5839-4.7288-3.3068-6.94-5.16-2.07-2.07-2.43-4.8-.92-7 1.9-2.72 4.41-2.94 5.59-2.64l-1 3.88h.11c-.07 0-.71 0-1.46 1-.14.2-.56.8.47 1.83.78.78 4.3 3.24 6.4 4.71 1.45 1 2.34 1.63 2.8 2 1.7363.1831 3.4906.0954 5.2-.26.5013-.1614 1.0461-.1186 1.516.1192.4699.2377.8271.6513.994 1.1508.0913.2506.1316.5169.1185.7833s-.0794.5275-.195.7679c-.1155.2404-.278.4553-.4778.632-.1998.1766-.433.3116-.6857.3968-1.6289.3695-3.2903.5772-4.96.62z"/><path d="m91.31 87.55c-2.51 0-10.49-4.43-11.28-5-1.0676-.6885-1.8469-1.7434-2.1913-2.9662s-.2301-2.5293.3213-3.6738c.4182-.9414 1.095-1.7447 1.9518-2.3165.8569-.5718 1.8584-.8886 2.8882-.9135.5304 0 1.0391.2107 1.4142.5858s.5858.8838.5858 1.4142-.2107 1.0391-.5858 1.4142-.8838.5858-1.4142.5858c-.2591.0268-.5059.1239-.7139.2807-.208.1569-.3691.3675-.4661.6093-.1617.2834-.2063.6188-.1241.9346.0823.3158.2847.5869.5641.7554 1.41.94 7.81 4.14 9.13 4.29 1.8294-.4882 3.5974-1.1827 5.27-2.07.4761-.2347 1.0259-.2707 1.5285-.1.2488.0845.4786.2171.6762.3904.1976.1734.3591.3839.4753.6196s.1849.492.202.7543c.0172.2622-.0174.5253-.1019.7742-.0846.2488-.2172.4786-.3905.6762s-.3839.3591-.6196.4753c-1.52.75-5.23 2.48-7.12 2.48z"/><path d="m81.21 67.26c-.1131.0097-.2269.0097-.34 0l-14.8-2.57c-1.2472-.2174-2.3573-.9207-3.0866-1.9555-.7293-1.0349-1.0182-2.3168-.8034-3.5645l2.82-16.44c.2174-1.2472.9207-2.3573 1.9555-3.0866 1.0349-.7292 2.3168-1.0182 3.5645-.8034l16.48 2.85c1.2472.2174 2.3573.9207 3.0866 1.9555.7292 1.0349 1.0182 2.3168.8034 3.5645l-1.49 8.61c-.0377.265-.1282.5197-.2661.749s-.3205.4287-.5368.5862c-.2164.1575-.4622.27-.7228.3308s-.5308.0687-.7945.0232c-.2637-.0456-.5156-.1435-.7408-.2882-.2252-.1446-.419-.333-.5701-.5539-.151-.2209-.2562-.4699-.3093-.7322-.053-.2623-.0529-.5326.0004-.7949l1.49-8.62c.0349-.2028-.0117-.4112-.1297-.5797-.118-.1686-.2978-.2837-.5003-.3203l-16.4-2.85c-.1005-.0184-.2036-.0164-.3032.0059-.0997.0224-.1938.0646-.2768.1241-.0838.058-.1552.1321-.2101.2179-.055.0859-.0923.1817-.1099.2821l-2.85 16.4c-.0323.2024.0154.4095.1329.5774.1176.168.2958.2836.4971.3226l14.8 2.57c.5304.0451 1.0212.299 1.3644.706.3432.4069.5107.9336.4656 1.464s-.299 1.0212-.706 1.3644c-.4069.3432-.9336.5107-1.464.4656z"/><path d="m23.66 72.46c-.3682.0044-.7304-.093-1.0468-.2813-.3164-.1884-.5747-.4604-.7463-.7861-.1717-.3258-.2501-.6926-.2266-1.0601.0235-.3674.148-.7213.3597-1.0225 1.1482-1.6323 1.7644-3.5793 1.7644-5.575s-.6162-3.9427-1.7644-5.575c-.2846-.4341-.3893-.9619-.2919-1.4718.0975-.5099.3893-.9619.8139-1.2606.4246-.2986.9487-.4205 1.4615-.3398s.9741.3576 1.2865.7722c1.6238 2.3068 2.4953 5.059 2.4953 7.88s-.8715 5.5732-2.4953 7.88c-.183.2571-.4243.4673-.7042.6133-.2798.146-.5902.2237-.9058.2267z"/><path d="m31.42 76.44c-.3558-.0004-.7051-.0957-1.0118-.2761s-.5597-.4394-.733-.7502c-.1732-.3108-.2604-.6622-.2525-1.0179.0079-.3558.1105-.703.2973-1.0058 1.7934-2.9029 2.7432-6.2478 2.7432-9.66s-.9498-6.7571-2.7432-9.66c-.168-.2231-.2874-.4788-.3506-.7509-.0631-.272-.0686-.5542-.0161-.8285.0525-.2742.1619-.5344.3211-.7639.1592-.2294.3646-.423.6031-.5682.2386-.1452.5049-.2389.7818-.2749.2769-.0361.5583-.0138.826.0655.2678.0792.516.2137.7286.3947.2127.181.3851.4045.5061.6562 2.1867 3.5364 3.345 7.6121 3.345 11.77s-1.1583 8.2336-3.345 11.77c-.1849.2808-.4376.5105-.7347.6678s-.6291.2372-.9653.2322z"/><path d="m39.48 80.6c-.3501-.0021-.6934-.0961-.9958-.2724-.3023-.1764-.5531-.4291-.7272-.7328s-.2655-.6477-.265-.9978c.0006-.3501.093-.6938.268-.997 2.4559-4.2025 3.7502-8.9825 3.7502-13.85s-1.2943-9.6475-3.7502-13.85c-.1565-.2271-.2644-.4841-.3168-.7549-.0525-.2707-.0483-.5494.0121-.8185.0605-.2691.1759-.5228.3391-.7451.1632-.2224.3706-.4085.6092-.5469.2386-.1383.5033-.2258.7773-.2569.2741-.0311.5516-.0052.8151.076.2636.0813.5075.2162.7164.3962.2089.1801.3783.4014.4976.6501 2.8163 4.8165 4.3007 10.2955 4.3007 15.875s-1.4844 11.0585-4.3007 15.875c-.1816.2944-.4364.5368-.7397.7033-.3032.1665-.6444.2515-.9903.2467z"/><path d="m47.88 84.91c-.3517.0014-.6976-.09-1.0028-.265-.3051-.1749-.5587-.4273-.7352-.7315-.1765-.3043-.2696-.6498-.27-1.0015-.0003-.3518.0921-.6974.268-1.002 3.1457-5.5481 4.7993-11.8171 4.7993-18.195s-1.6536-12.6468-4.7993-18.195c-.1313-.2285-.2163-.4806-.2502-.742-.0339-.2613-.016-.5268.0527-.7813.1388-.5138.476-.9515.9375-1.2167s1.0094-.3362 1.5233-.1975c.5138.1388.9515.476 1.2167.9375 3.4894 6.1515 5.3237 13.1028 5.3237 20.175s-1.8343 14.0235-5.3237 20.175c-.1711.3127-.4226.5739-.7285.7568-.3059.1828-.6551.2806-1.0115.2832z"/></g></svg>

<svg width="128" height="128" viewBox="0 0 128 128" fill="none" xmlns="http://www.w3.org/2000/svg">
<g clip-path="url(#clip0_1_2)">
<path d="M54.76 104.79C24.56 104.79 0 86.49 0 64C0 41.51 24.56 23.21 54.76 23.21C78.48 23.21 99.39 34.46 106.76 51.21C106.975 51.6953 106.988 52.2462 106.797 52.7412C106.702 52.9864 106.56 53.2105 106.379 53.4007C106.197 53.591 105.98 53.7436 105.74 53.85C105.5 53.9564 105.241 54.0144 104.978 54.0207C104.715 54.027 104.454 53.9815 104.209 53.8868C103.714 53.6955 103.315 53.3153 103.1 52.83C96.36 37.5 76.92 27.21 54.76 27.21C26.77 27.21 4 43.71 4 64C4 84.29 26.77 100.79 54.76 100.79C70.92 100.79 85.76 95.38 95.46 85.95C95.8406 85.58 96.3526 85.3764 96.8833 85.3839C97.414 85.3914 97.92 85.6094 98.29 85.99C98.66 86.3706 98.8636 86.8826 98.8561 87.4133C98.8486 87.944 98.6306 88.45 98.25 88.82C87.8 99 72 104.79 54.76 104.79Z" fill="#FFFEFE"/>
<path d="M126 86.16C125.66 86.1607 125.326 86.0747 125.028 85.9103C124.731 85.7458 124.48 85.5082 124.3 85.22C117.58 74.44 106.38 56.77 104.93 55.28L104.48 54.83C102.77 53.11 101.15 51.48 99.41 51.48C96.75 51.48 89.03 52.16 88.95 52.17C88.6874 52.193 88.4228 52.164 88.1713 52.0847C87.9199 52.0055 87.6865 51.8774 87.4845 51.708C87.2826 51.5385 87.1159 51.3309 86.9942 51.097C86.8725 50.8632 86.798 50.6076 86.775 50.345C86.752 50.0824 86.781 49.8178 86.8603 49.5663C86.9395 49.3149 87.0676 49.0815 87.237 48.8795C87.4065 48.6776 87.6141 48.511 87.848 48.3892C88.0818 48.2675 88.3374 48.193 88.6 48.17C88.92 48.17 96.6 47.47 99.41 47.47C102.82 47.47 105.21 49.88 107.32 52.01L107.76 52.45C109.9 54.58 124.76 78.36 127.7 83.1C127.889 83.403 127.994 83.7513 128.003 84.1085C128.013 84.4657 127.926 84.8189 127.752 85.1313C127.579 85.4437 127.325 85.7038 127.017 85.8848C126.708 86.0657 126.357 86.1607 126 86.16V86.16Z" fill="#FFFEFE"/>
<path d="M109.81 94.25H109.65C107.312 94.0047 105.049 93.2832 103 92.13C100.22 90.4354 97.9179 88.0608 96.31 85.23C95.5449 83.8884 94.9215 82.4707 94.45 81C93.84 79.32 93.14 77.41 92.3 76.66C91.46 75.91 88.3 73.38 84.92 70.66L79.79 66.51C74.72 62.4 72.21 60.3 71.4 59.51C68.4 56.51 68.4 52.76 71.4 49.74C72.66 48.48 75.49 46.74 80.26 49.41L101.53 61.2L99.59 64.7L78.32 52.84C75.47 51.26 74.54 52.2 74.23 52.51C72.41 54.33 73.23 55.66 74.23 56.62C75.23 57.58 80.56 61.94 82.31 63.36L87.43 67.5C91.16 70.5 94.1 72.89 94.96 73.65C96.56 75.07 97.4 77.38 98.21 79.65C98.5967 80.8556 99.099 82.0211 99.71 83.13C100.976 85.3972 102.796 87.3066 105 88.68C106.545 89.5333 108.245 90.0704 110 90.26C110.53 90.2799 111.031 90.5097 111.392 90.8988C111.753 91.288 111.945 91.8046 111.925 92.335C111.905 92.8654 111.675 93.3662 111.286 93.7272C110.897 94.0883 110.38 94.2799 109.85 94.26L109.81 94.25Z" fill="#FFFEFE"/>
<path d="M90.45 80.62C89.0998 80.7275 87.7499 80.4093 86.59 79.71C86.24 79.43 85.1 78.63 83.89 77.79C81.4785 76.2061 79.1612 74.4832 76.95 72.63C74.88 70.56 74.52 67.83 76.03 65.63C77.93 62.91 80.44 62.69 81.62 62.99L80.62 66.87H80.73C80.66 66.87 80.02 66.87 79.27 67.87C79.13 68.07 78.71 68.67 79.74 69.7C80.52 70.48 84.04 72.94 86.14 74.41C87.59 75.41 88.48 76.04 88.94 76.41C90.6763 76.5931 92.4306 76.5054 94.14 76.15C94.6413 75.9886 95.1861 76.0314 95.656 76.2692C96.1259 76.5069 96.4831 76.9205 96.65 77.42C96.7413 77.6706 96.7816 77.9369 96.7685 78.2033C96.7554 78.4697 96.6891 78.7308 96.5735 78.9712C96.458 79.2116 96.2955 79.4265 96.0957 79.6032C95.8959 79.7798 95.6627 79.9148 95.41 80C93.7811 80.3695 92.1197 80.5772 90.45 80.62Z" fill="#FFFEFE"/>
<path d="M91.31 87.55C88.8 87.55 80.82 83.12 80.03 82.55C78.9624 81.8615 78.1831 80.8066 77.8387 79.5838C77.4943 78.361 77.6086 77.0545 78.16 75.91C78.5782 74.9686 79.255 74.1653 80.1118 73.5935C80.9687 73.0217 81.9702 72.7049 83 72.68C83.5304 72.68 84.0391 72.8907 84.4142 73.2658C84.7893 73.6409 85 74.1496 85 74.68C85 75.2104 84.7893 75.7191 84.4142 76.0942C84.0391 76.4693 83.5304 76.68 83 76.68C82.7409 76.7068 82.4941 76.8039 82.2861 76.9607C82.0781 77.1176 81.917 77.3282 81.82 77.57C81.6583 77.8534 81.6137 78.1888 81.6959 78.5046C81.7782 78.8204 81.9806 79.0915 82.26 79.26C83.67 80.2 90.07 83.4 91.39 83.55C93.2194 83.0618 94.9874 82.3673 96.66 81.48C97.1361 81.2453 97.6859 81.2093 98.1885 81.38C98.4373 81.4645 98.6671 81.5971 98.8647 81.7704C99.0623 81.9438 99.2238 82.1543 99.34 82.39C99.4562 82.6257 99.5249 82.882 99.542 83.1443C99.5592 83.4065 99.5246 83.6696 99.4401 83.9185C99.3555 84.1673 99.2229 84.3971 99.0496 84.5947C98.8763 84.7923 98.6657 84.9538 98.43 85.07C96.91 85.82 93.2 87.55 91.31 87.55Z" fill="#FFFEFE"/>
<path d="M81.21 67.26C81.0969 67.2697 80.9831 67.2697 80.87 67.26L66.07 64.69C64.8228 64.4726 63.7127 63.7693 62.9834 62.7345C62.2541 61.6996 61.9652 60.4177 62.18 59.17L65 42.73C65.2174 41.4828 65.9207 40.3727 66.9555 39.6434C67.9904 38.9142 69.2723 38.6252 70.52 38.84L87 41.69C88.2472 41.9074 89.3573 42.6107 90.0866 43.6455C90.8158 44.6804 91.1048 45.9623 90.89 47.21L89.4 55.82C89.3623 56.085 89.2718 56.3397 89.1339 56.569C88.996 56.7983 88.8134 56.9977 88.5971 57.1552C88.3807 57.3127 88.1349 57.4252 87.8743 57.486C87.6137 57.5468 87.3435 57.5547 87.0798 57.5092C86.8161 57.4636 86.5642 57.3657 86.339 57.221C86.1138 57.0764 85.92 56.888 85.7689 56.6671C85.6179 56.4462 85.5127 56.1972 85.4596 55.9349C85.4066 55.6726 85.4067 55.4023 85.46 55.14L86.95 46.52C86.9849 46.3172 86.9383 46.1088 86.8203 45.9403C86.7023 45.7717 86.5225 45.6566 86.32 45.62L69.92 42.77C69.8195 42.7516 69.7164 42.7536 69.6168 42.7759C69.5171 42.7983 69.423 42.8405 69.34 42.9C69.2562 42.958 69.1848 43.0321 69.1299 43.1179C69.0749 43.2038 69.0376 43.2996 69.02 43.4L66.17 59.8C66.1377 60.0024 66.1854 60.2095 66.3029 60.3774C66.4205 60.5454 66.5987 60.661 66.8 60.7L81.6 63.27C82.1304 63.3151 82.6212 63.569 82.9644 63.976C83.3076 64.3829 83.4751 64.9096 83.43 65.44C83.3849 65.9704 83.131 66.4612 82.724 66.8044C82.3171 67.1476 81.7904 67.3151 81.26 67.27L81.21 67.26Z" fill="#FFFEFE"/>
<path d="M23.66 72.46C23.2918 72.4644 22.9296 72.367 22.6132 72.1787C22.2968 71.9903 22.0385 71.7183 21.8669 71.3926C21.6952 71.0668 21.6168 70.7 21.6403 70.3325C21.6638 69.9651 21.7883 69.6112 22 69.31C23.1482 67.6777 23.7644 65.7307 23.7644 63.735C23.7644 61.7393 23.1482 59.7923 22 58.16C21.7154 57.7259 21.6107 57.1981 21.7081 56.6882C21.8056 56.1783 22.0974 55.7263 22.522 55.4276C22.9466 55.129 23.4707 55.0071 23.9835 55.0878C24.4963 55.1685 24.9576 55.4454 25.27 55.86C26.8938 58.1668 27.7653 60.919 27.7653 63.74C27.7653 66.561 26.8938 69.3132 25.27 71.62C25.087 71.8771 24.8457 72.0873 24.5658 72.2333C24.286 72.3793 23.9756 72.457 23.66 72.46Z" fill="#FFFEFE"/>
<path d="M31.42 76.44C31.0642 76.4396 30.7149 76.3443 30.4082 76.1639C30.1015 75.9835 29.8485 75.7245 29.6752 75.4137C29.502 75.1029 29.4148 74.7515 29.4227 74.3958C29.4306 74.04 29.5332 73.6928 29.72 73.39C31.5134 70.4871 32.4632 67.1422 32.4632 63.73C32.4632 60.3178 31.5134 56.9729 29.72 54.07C29.552 53.8469 29.4326 53.5912 29.3694 53.3191C29.3063 53.0471 29.3008 52.7649 29.3533 52.4906C29.4058 52.2164 29.5152 51.9562 29.6744 51.7267C29.8336 51.4973 30.039 51.3037 30.2775 51.1585C30.5161 51.0133 30.7824 50.9196 31.0593 50.8836C31.3362 50.8475 31.6176 50.8698 31.8853 50.9491C32.1531 51.0283 32.4013 51.1628 32.6139 51.3438C32.8266 51.5248 32.999 51.7483 33.12 52C35.3067 55.5364 36.465 59.6121 36.465 63.77C36.465 67.9279 35.3067 72.0036 33.12 75.54C32.9351 75.8208 32.6824 76.0505 32.3853 76.2078C32.0882 76.3651 31.7562 76.445 31.42 76.44V76.44Z" fill="#FFFEFE"/>
<path d="M39.48 80.6C39.1299 80.5979 38.7866 80.5039 38.4842 80.3276C38.1819 80.1512 37.9311 79.8985 37.757 79.5948C37.5829 79.2911 37.4915 78.9471 37.492 78.597C37.4926 78.2469 37.585 77.9032 37.76 77.6C40.2159 73.3975 41.5102 68.6175 41.5102 63.75C41.5102 58.8825 40.2159 54.1025 37.76 49.9C37.6035 49.6729 37.4956 49.4159 37.4432 49.1451C37.3907 48.8744 37.3949 48.5957 37.4553 48.3266C37.5158 48.0575 37.6312 47.8038 37.7944 47.5815C37.9576 47.3591 38.165 47.173 38.4036 47.0346C38.6422 46.8963 38.9069 46.8088 39.1809 46.7777C39.455 46.7466 39.7325 46.7725 39.996 46.8537C40.2596 46.935 40.5035 47.0699 40.7124 47.2499C40.9213 47.43 41.0907 47.6513 41.21 47.9C44.0263 52.7165 45.5107 58.1955 45.5107 63.775C45.5107 69.3545 44.0263 74.8335 41.21 79.65C41.0284 79.9444 40.7736 80.1868 40.4703 80.3533C40.1671 80.5198 39.8259 80.6048 39.48 80.6V80.6Z" fill="#FFFEFE"/>
<path d="M47.88 84.91C47.5283 84.9114 47.1824 84.82 46.8772 84.645C46.5721 84.4701 46.3185 84.2177 46.142 83.9135C45.9655 83.6092 45.8724 83.2637 45.872 82.912C45.8717 82.5602 45.9641 82.2146 46.14 81.91C49.2857 76.3619 50.9393 70.0929 50.9393 63.715C50.9393 57.3371 49.2857 51.0682 46.14 45.52C46.0087 45.2915 45.9237 45.0394 45.8898 44.778C45.8559 44.5167 45.8738 44.2512 45.9425 43.9967C46.0813 43.4829 46.4185 43.0452 46.88 42.78C47.3415 42.5148 47.8894 42.4438 48.4033 42.5825C48.9171 42.7213 49.3548 43.0585 49.62 43.52C53.1094 49.6715 54.9437 56.6228 54.9437 63.695C54.9437 70.7672 53.1094 77.7185 49.62 83.87C49.4489 84.1827 49.1974 84.4439 48.8915 84.6268C48.5856 84.8096 48.2364 84.9074 47.88 84.91Z" fill="#FFFEFE"/>
</g>
<defs>
<clipPath id="clip0_1_2">
<rect width="128" height="128" fill="white"/>
</clipPath>
</defs>
</svg>
